X:1
T:Caroline and her Young Sailor Bold
M:3/4
L:1/4
K:F
 C| F A F| G A B| d c2-| c z C| F A c| G B A| F3-| F z C| F A F| G A B|\
 d c2-| c3/2 C3/2| F A c| G B A| F3-| F| zA/2-B/2| c A c| f- e f| d G2-|\
 G z G/2A/2| B c d| c B G| F3-| F z C| F A F| G A B| d c2-| c z C/2C/2|\
 F A c| G B A| F3-| F z||
